spatial/r.svg

<?xml version="1.0" encoding="UTF-8" standalone="no"?>
<!-- Created with Inkscape (http://www.inkscape.org/) -->

<svg
   width="700pt"
   height="700pt"
   id="rook"
   viewBox="0 0 933.333 933.333"
   sodipodi:version="0.32"
   inkscape:version="1.1.2 (0a00cf5339, 2022-02-04)"
   version="1.0"
   inkscape:export-filename="/home/maurizio/out/wr.png"
   inkscape:export-xdpi="90"
   inkscape:export-ydpi="90"
   sodipodi:docname="r.svg"
   xmlns:inkscape="http://www.inkscape.org/namespaces/inkscape"
   xmlns:sodipodi="http://sodipodi.sourceforge.net/DTD/sodipodi-0.dtd"
   xmlns:xlink="http://www.w3.org/1999/xlink"
   xmlns="http://www.w3.org/2000/svg"
   xmlns:svg="http://www.w3.org/2000/svg"
   xmlns:rdf="http://www.w3.org/1999/02/22-rdf-syntax-ns#"
   xmlns:cc="http://creativecommons.org/ns#"
   xmlns:dc="http://purl.org/dc/elements/1.1/">
  <style
     id="style-base">
    .base { 
      fill-opacity:1;
      fill-rule:evenodd;
      stroke-miterlimit:4;
      stroke-dasharray:none;
      stroke-linecap:round;
      stroke-linejoin:round;
      stroke-opacity:1;
    }
    .shadow {
      stroke:none;
      filter:url(#filterBlur);
    }
  </style>
  <style
     id="stroke-medium">
    .stroke-medium {
      stroke-width: 18;
    }
  </style>
  <style
     id="stroke-boundary">
    .stroke-boundary {
      stroke-width: 30;
    }
  </style>
  <style
     id="stroke-color">
    .stroke-color {
      stroke:#ff0000;
    }
  </style>
  <style
     id="fill-color">
    .fill-color {
      fill:#00ff00;
    }
  </style>
  <defs
     id="defs36222">
    <linearGradient
       id="fillGradient">
      <stop
         style="stop-color:#ffffff;stop-opacity:1;"
         offset="0"
         id="stop0" />
      <stop
         style="stop-color:#00ffff;stop-opacity:1;"
         offset="1"
         id="stop1" />
    </linearGradient>
    <linearGradient
       inkscape:collect="always"
       xlink:href="#fillGradient"
       id="bottom-gradient"
       gradientUnits="userSpaceOnUse"
       x1="88.715729"
       y1="286.24783"
       x2="772.14215"
       y2="750.5813"
       gradientTransform="matrix(1.0781991,0,0,1.0781991,-3.986363,-14.409984)" />
    <linearGradient
       inkscape:collect="always"
       xlink:href="#fillGradient"
       id="center-gradient"
       gradientUnits="userSpaceOnUse"
       x1="88.715729"
       y1="286.24783"
       x2="772.14215"
       y2="750.5813"
       gradientTransform="matrix(1.0781991,0,0,1.0781991,-37.986363,-89.10193)" />
    <linearGradient
       inkscape:collect="always"
       xlink:href="#fillGradient"
       id="top-gradient"
       gradientUnits="userSpaceOnUse"
       x1="88.715729"
       y1="286.24783"
       x2="772.14215"
       y2="750.5813"
       gradientTransform="matrix(1.0781991,0,0,1.0781991,-15.986363,-71.10193)" />
    <filter
       style="color-interpolation-filters:sRGB;"
       id="filterBlur"
       x="-0.19086554"
       y="-0.16337514"
       width="1.3817311"
       height="1.3267503">
      <feGaussianBlur
         stdDeviation="50 50"
         result="blur"
         id="feGaussianBlur13" />
    </filter>
  </defs>
  <sodipodi:namedview
     id="base"
     pagecolor="#ffffff"
     bordercolor="#666666"
     borderopacity="1.0"
     inkscape:pageopacity="0.0"
     inkscape:pageshadow="2"
     inkscape:zoom="0.21213204"
     inkscape:cx="-912.16773"
     inkscape:cy="744.81913"
     inkscape:current-layer="rook"
     inkscape:document-units="px"
     inkscape:window-width="1846"
     inkscape:window-height="1016"
     inkscape:window-x="0"
     inkscape:window-y="0"
     inkscape:showpageshadow="2"
     inkscape:pagecheckerboard="0"
     inkscape:deskcolor="#d1d1d1"
     showgrid="false"
     inkscape:window-maximized="1" />
  <metadata
     id="metadata36225">
    <rdf:RDF>
      <cc:Work
         rdf:about="">
        <dc:format>image/svg+xml</dc:format>
        <dc:type
           rdf:resource="http://purl.org/dc/dcmitype/StillImage" />
        <dc:creator>
          <cc:Agent>
            <dc:title>Maurizio Monge</dc:title>
          </cc:Agent>
        </dc:creator>
        <dc:rights>
          <cc:Agent>
            <dc:title>Maurizio Monge</dc:title>
          </cc:Agent>
        </dc:rights>
        <cc:license
           rdf:resource="http://creativecommons.org/licenses/GPL/2.0/" />
      </cc:Work>
      <cc:License
         rdf:about="http://creativecommons.org/licenses/GPL/2.0/">
        <cc:permits
           rdf:resource="http://web.resource.org/cc/Reproduction" />
        <cc:permits
           rdf:resource="http://web.resource.org/cc/Distribution" />
        <cc:requires
           rdf:resource="http://web.resource.org/cc/Notice" />
        <cc:permits
           rdf:resource="http://web.resource.org/cc/DerivativeWorks" />
        <cc:requires
           rdf:resource="http://web.resource.org/cc/ShareAlike" />
        <cc:requires
           rdf:resource="http://web.resource.org/cc/SourceCode" />
      </cc:License>
    </rdf:RDF>
  </metadata>
  <path
     id="shadow"
     style="fill:#000000"
     class="base shadow"
     d="m 786.62109,130.53516 -114.5957,0.0859 c -6.5234,15.69371 -10.59365,43.58287 -20.99609,46.60352 -21.77893,6.32415 -38.79906,12.14471 -52.60742,17.56836 11.14531,3.19064 58.79036,22.87109 50.74023,36.21094 -7.97845,13.22112 -80.09986,16.83401 -94.57227,-0.0937 -7.83985,-9.16995 14.69837,-26.43652 43.83204,-36.11719 -12.09112,-4.51575 -26.49438,-9.33483 -43.83399,-14.49805 -13.68708,-4.0756 -21.49015,-35.2398 -23.72461,-49.57031 l -116.05664,0.084 c -5.55607,16.48575 -8.34093,45.39985 -20.47461,49.17579 -21.6976,6.75218 -38.72613,12.87484 -52.59375,18.51562 11.14533,3.19064 53.89583,19.03124 45.8457,32.37109 -7.97845,13.22107 -77.4768,20.76761 -91.94921,3.83985 -7.83985,-9.16995 16.96985,-26.53027 46.10351,-36.21094 -14.14092,-5.02182 -31.54609,-10.37498 -53.79687,-16.13672 -22.0168,-5.70115 -14.88917,-38.88623 -22.0918,-51.44336 l -107.94336,0.0781 c 5.76579,62.35953 10.6948,118.39255 59.31445,180.8164 l 499.10157,-2.58789 c 45.68092,-61.00868 56.73278,-119.76824 70.29882,-178.6914 z m -510.79882,215.09375 16,397.60937 h 345.02148 l 16,-397.60937 z m -47.70118,435.5332 c -32.52541,33.54793 -28.89138,56.56694 -40,83.87891 h 554.17969 c -6.51111,-28.4439 -4.55037,-57.55382 -38,-83.87891 z"
     sodipodi:nodetypes="ccscsscsccscsscsccccccccccccccc" />
  <path
     id="boundary"
     class="base stroke-color stroke-boundary"
     style="fill:none"
     d="m 654.31513,303.56881 65.05338,1.52243 c 43.1357,-59.53078 53.99335,-116.96546 67.25258,-174.55608 l -114.5957,0.0859 c -6.52338,15.69369 -10.59367,43.58287 -20.99609,46.60352 -21.77889,6.32414 -38.79907,12.14471 -52.60742,17.56836 -12.0911,-4.51575 -26.49442,-9.33484 -43.83399,-14.49805 -13.68706,-4.07558 -21.49015,-35.23982 -23.72461,-49.57031 l -116.05664,0.084 c -5.55605,16.48573 -8.34095,45.39985 -20.47461,49.17579 -21.69756,6.75216 -38.72615,12.87486 -52.59375,18.51562 -14.14089,-5.02181 -31.54615,-10.37498 -53.79687,-16.13672 -22.01676,-5.70113 -14.88919,-38.88625 -22.0918,-51.44336 l -107.94336,0.0781 c 5.62884,60.87839 10.4603,115.7276 55.92372,176.37946 l 56.52954,-1.83859 m 5.46276,48.08999 16,381.60941 m 345.02148,0 16,-381.60937 m -373.49337,433.53316 -54.55569,-2.46971 c -28.95975,31.65577 -25.95896,54.0053 -36.6736,80.34862 h 554.17969 c -6.14651,-26.85118 -4.74341,-54.29594 -32.70639,-79.43115 l -55.58621,1.55224"
     sodipodi:nodetypes="ccccscsccscscccccccccccccc" />
  <path
     id="center"
     style="fill:url(#center-gradient)"
     class="base stroke-color stroke-medium"
     d="m 275.82227,345.62891 16,397.60937 h 345.02148 l 16,-397.60937 z"
     sodipodi:nodetypes="ccccc" />
  <path
     id="top"
     class="base stroke-color stroke-medium"
     style="fill:url(#top-gradient)"
     d="m 157.90542,130.99856 c 5.76579,62.35953 10.69621,118.39133 59.31586,180.81518 l 499.10148,-2.58661 c 45.68092,-61.00868 56.73166,-119.7685 70.2977,-178.69166 l -114.5949,0.0859 c -6.5234,15.69371 -10.59453,43.58337 -20.99697,46.60402 -292.69769,84.99342 192.12331,88.99504 -96.4398,3.06956 -13.68708,-4.0756 -21.49174,-35.24053 -23.7262,-49.57104 l -116.05632,0.0855 c -5.55607,16.48575 -8.34124,45.39981 -20.47492,49.17575 -294.979229,91.79605 191.18028,79.4331 -106.39003,2.37859 -22.0168,-5.70115 -14.88877,-38.88612 -22.0914,-51.44325 z"
     sodipodi:nodetypes="cccccssccsscc" />
  <path
     id="bottom"
     class="base stroke-color stroke-medium"
     style="fill:url(#bottom-gradient)"
     d="m 228.12019,781.16114 c -32.52541,33.54793 -28.89138,56.56727 -40,83.87924 H 742.3004 c -6.51111,-28.4439 -4.55037,-57.55415 -38,-83.87924 z"
     sodipodi:nodetypes="ccccc" />
</svg>

<?xml version="1.0" encoding="UTF-8" standalone="no"?>
<!-- Created with Inkscape (http://www.inkscape.org/) -->

<svg
   width="700pt"
   height="700pt"
   id="rook"
   viewBox="0 0 933.333 933.333"
   sodipodi:version="0.32"
   inkscape:version="1.1.2 (0a00cf5339, 2022-02-04)"
   version="1.0"
   inkscape:export-filename="/home/maurizio/out/wr.png"
   inkscape:export-xdpi="90"
   inkscape:export-ydpi="90"
   sodipodi:docname="r_shad.svg"
   xmlns:inkscape="http://www.inkscape.org/namespaces/inkscape"
   xmlns:sodipodi="http://sodipodi.sourceforge.net/DTD/sodipodi-0.dtd"
   xmlns:xlink="http://www.w3.org/1999/xlink"
   xmlns="http://www.w3.org/2000/svg"
   xmlns:svg="http://www.w3.org/2000/svg"
   xmlns:rdf="http://www.w3.org/1999/02/22-rdf-syntax-ns#"
   xmlns:cc="http://creativecommons.org/ns#"
   xmlns:dc="http://purl.org/dc/elements/1.1/">
  <style
     id="style-base">
    .base { 
      fill-opacity:1;
      fill-rule:evenodd;
      stroke-miterlimit:4;
      stroke-dasharray:none;
      stroke-linecap:round;
      stroke-linejoin:round;
      stroke-opacity:1;
    }
    .shadow {
      stroke:none;
      filter:url(#filterBlur);
    }
  </style>
  <style
     id="stroke-medium">
    .stroke-medium {
      stroke-width: 18;
    }
  </style>
  <style
     id="stroke-boundary">
    .stroke-boundary {
      stroke-width: 30;
    }
  </style>
  <style
     id="stroke-color">
    .stroke-color {
      stroke:#ff0000;
    }
  </style>
  <style
     id="fill-color">
    .fill-color {
      fill:#00ff00;
    }
  </style>
  <defs
     id="defs36222">
    <linearGradient
       id="fillGradient">
      <stop
         style="stop-color:#ffffff;stop-opacity:1;"
         offset="0"
         id="stop0" />
      <stop
         style="stop-color:#00ffff;stop-opacity:1;"
         offset="1"
         id="stop1" />
    </linearGradient>
    <linearGradient
       inkscape:collect="always"
       xlink:href="#fillGradient"
       id="bottom-gradient"
       gradientUnits="userSpaceOnUse"
       x1="88.715729"
       y1="286.24783"
       x2="772.14215"
       y2="750.5813"
       gradientTransform="matrix(1.0781991,0,0,1.0781991,-3.986363,-14.409984)" />
    <linearGradient
       inkscape:collect="always"
       xlink:href="#fillGradient"
       id="center-gradient"
       gradientUnits="userSpaceOnUse"
       x1="88.715729"
       y1="286.24783"
       x2="772.14215"
       y2="750.5813"
       gradientTransform="matrix(1.0781991,0,0,1.0781991,-37.986363,-89.10193)" />
    <linearGradient
       inkscape:collect="always"
       xlink:href="#fillGradient"
       id="top-gradient"
       gradientUnits="userSpaceOnUse"
       x1="88.715729"
       y1="286.24783"
       x2="772.14215"
       y2="750.5813"
       gradientTransform="matrix(1.0781991,0,0,1.0781991,-15.986363,-71.10193)" />
    <filter
       style="color-interpolation-filters:sRGB;"
       id="filterBlur"
       x="-0.19086554"
       y="-0.16337513"
       width="1.3817311"
       height="1.3267503">
      <feGaussianBlur
         stdDeviation="50 50"
         result="blur"
         id="feGaussianBlur13" />
    </filter>
  </defs>
  <sodipodi:namedview
     id="base"
     pagecolor="#ffffff"
     bordercolor="#666666"
     borderopacity="1.0"
     inkscape:pageopacity="0.0"
     inkscape:pageshadow="2"
     inkscape:zoom="1.6970563"
     inkscape:cx="449.89669"
     inkscape:cy="282.84271"
     inkscape:current-layer="rook"
     inkscape:document-units="px"
     inkscape:window-width="1846"
     inkscape:window-height="1016"
     inkscape:window-x="0"
     inkscape:window-y="0"
     inkscape:showpageshadow="2"
     inkscape:pagecheckerboard="0"
     inkscape:deskcolor="#d1d1d1"
     showgrid="false"
     inkscape:window-maximized="1" />
  <metadata
     id="metadata36225">
    <rdf:RDF>
      <cc:Work
         rdf:about="">
        <dc:format>image/svg+xml</dc:format>
        <dc:type
           rdf:resource="http://purl.org/dc/dcmitype/StillImage" />
        <dc:creator>
          <cc:Agent>
            <dc:title>Maurizio Monge</dc:title>
          </cc:Agent>
        </dc:creator>
        <dc:rights>
          <cc:Agent>
            <dc:title>Maurizio Monge</dc:title>
          </cc:Agent>
        </dc:rights>
        <cc:license
           rdf:resource="http://creativecommons.org/licenses/GPL/2.0/" />
      </cc:Work>
      <cc:License
         rdf:about="http://creativecommons.org/licenses/GPL/2.0/">
        <cc:permits
           rdf:resource="http://web.resource.org/cc/Reproduction" />
        <cc:permits
           rdf:resource="http://web.resource.org/cc/Distribution" />
        <cc:requires
           rdf:resource="http://web.resource.org/cc/Notice" />
        <cc:permits
           rdf:resource="http://web.resource.org/cc/DerivativeWorks" />
        <cc:requires
           rdf:resource="http://web.resource.org/cc/ShareAlike" />
        <cc:requires
           rdf:resource="http://web.resource.org/cc/SourceCode" />
      </cc:License>
    </rdf:RDF>
  </metadata>
  <path
     id="shadow"
     style="fill:#000000"
     class="base shadow"
     d="M 786.62109 130.53516 L 672.02539 130.62109 C 665.50199 146.3148 661.43174 174.20396 651.0293 177.22461 C 629.25037 183.54876 612.23024 189.36932 598.42188 194.79297 C 609.56719 197.98361 657.21224 217.66406 649.16211 231.00391 C 641.18366 244.22503 569.06225 247.83792 554.58984 230.91016 C 546.74999 221.74021 569.28821 204.47364 598.42188 194.79297 C 586.33076 190.27722 571.9275 185.45814 554.58789 180.29492 C 540.90081 176.21932 533.09774 145.05512 530.86328 130.72461 L 414.80664 130.80859 C 409.25057 147.29434 406.46571 176.20844 394.33203 179.98438 C 372.63443 186.73656 355.6059 192.85922 341.73828 198.5 C 352.88361 201.69064 395.63411 217.53124 387.58398 230.87109 C 379.60553 244.09216 310.10718 251.6387 295.63477 234.71094 C 287.79492 225.54099 312.60462 208.18067 341.73828 198.5 C 327.59736 193.47818 310.19219 188.12502 287.94141 182.36328 C 265.92461 176.66213 273.05224 143.47705 265.84961 130.91992 L 157.90625 130.99805 C 163.67204 193.35758 168.60105 249.3906 217.2207 311.81445 L 716.32227 309.22656 C 762.00319 248.21788 773.05505 189.45832 786.62109 130.53516 z M 275.82227 345.62891 L 275.82227 743.23828 L 652.84375 743.23828 L 652.84375 345.62891 L 275.82227 345.62891 z M 228.12109 781.16211 C 195.59568 814.71004 199.22971 837.72905 188.12109 865.04102 L 742.30078 865.04102 C 735.78967 836.59712 737.75041 807.4872 704.30078 781.16211 L 228.12109 781.16211 z " />
  <path
     id="boundary"
     class="base stroke-color stroke-boundary"
     style="fill:none"
     d="m 654.31513,303.56881 65.05338,1.52243 c 43.1357,-59.53078 53.99335,-116.96546 67.25258,-174.55608 l -114.5957,0.0859 c -6.52338,15.69369 -10.59367,43.58287 -20.99609,46.60352 -21.77889,6.32414 -38.79907,12.14471 -52.60742,17.56836 -12.0911,-4.51575 -26.49442,-9.33484 -43.83399,-14.49805 -13.68706,-4.07558 -21.49015,-35.23982 -23.72461,-49.57031 l -116.05664,0.084 c -5.55605,16.48573 -8.34095,45.39985 -20.47461,49.17579 -21.69756,6.75216 -38.72615,12.87486 -52.59375,18.51562 -14.14089,-5.02181 -31.54615,-10.37498 -53.79687,-16.13672 -22.01676,-5.70113 -14.88919,-38.88625 -22.0918,-51.44336 l -107.94336,0.0781 c 5.62884,60.87839 10.4603,115.7276 55.92372,176.37946 l 56.52954,-1.83859 m 5.46276,48.08999 v 381.60941 m 377.02148,0 V 353.62891 m -373.49337,433.53316 -54.55569,-2.46971 c -28.95975,31.65577 -25.95896,54.0053 -36.6736,80.34862 h 554.17969 c -6.14651,-26.85118 -4.74341,-54.29594 -32.70639,-79.43115 l -55.58621,1.55224"
     sodipodi:nodetypes="ccccscsccscscccccccccccccc" />
  <path
     id="center"
     style="fill:url(#center-gradient)"
     class="base stroke-color stroke-medium"
     d="M 275.82227,345.62891 V 743.23828 H 652.84375 V 345.62891 Z"
     sodipodi:nodetypes="ccccc" />
  <path
     id="top"
     class="base stroke-color stroke-medium"
     style="fill:url(#top-gradient)"
     d="m 157.90542,130.99856 c 5.76579,62.35953 10.69621,118.39133 59.31586,180.81518 l 499.10148,-2.58661 c 45.68092,-61.00868 56.73166,-119.7685 70.2977,-178.69166 l -114.5949,0.0859 c -6.5234,15.69371 -10.59453,43.58337 -20.99697,46.60402 -292.69769,84.99342 192.12331,88.99504 -96.4398,3.06956 -13.68708,-4.0756 -21.49174,-35.24053 -23.7262,-49.57104 l -116.05632,0.0855 c -5.55607,16.48575 -8.34124,45.39981 -20.47492,49.17575 -294.979229,91.79605 191.18028,79.4331 -106.39003,2.37859 -22.0168,-5.70115 -14.88877,-38.88612 -22.0914,-51.44325 z"
     sodipodi:nodetypes="cccccssccsscc" />
  <path
     id="bottom"
     class="base stroke-color stroke-medium"
     style="fill:url(#bottom-gradient)"
     d="m 228.12019,781.16114 c -32.52541,33.54793 -28.89138,56.56727 -40,83.87924 H 742.3004 c -6.51111,-28.4439 -4.55037,-57.55415 -38,-83.87924 z"
     sodipodi:nodetypes="ccccc" />
</svg>
